X: 14163
T: From Galway To Dublin
R: hornpipe
M: 4/4
K: Edorian
GF|:~E3F EDB,D|GFGB A2GA|Bdgf edBA|G~E3 D2B,D|
~E3F EDB,D|GFGB A2 GA|Bdgf edBA|1 GEED E2B,D:|2 GEED E2Bd||
|:~e3d ~B3A|GFGB d2 Bd|~e3d ~B3A|GE~E2 D2B,D|
~E3F EDB,D|GFGB A2GA|Bdgf edBA|1 GEED E2Bd:|2 GEED E2B,D||

